X: 954
T: Kesteven Processional **
M: 4/4
C: Jo Freya
L: 1/4
R: reel
Q: 170
K: F
"F"FAc>A|"Am"c>d c/B/A/G/|"Bb"Bdf>d|"C"c>d c/B/A/G/|"F"FAc>A|
"Am"c>d c/B/A/G/|"Bb"B A/B/ G c/B/|1 "C"A G/A/ "F"F2:|2 "C"AG/A/ "F"F f/e/||"Dm"d c "F"-cf/e/|
"Dm"dc"F"-cf/e/|"Bb"dcGA/B/|"C/G"c/B/c/d/cf/e/|"Dm"dc"F"-cf/e/|"Dm"dc"F"-cA|
"Bb"BA/B/ Gc/B/|"Am"AG/A/ "F"Ff/e/|"Dm"dc2"F"f/e/|"Dm"dc2"F"f/e/|"Bb"dcGA/B/|
"C/G"c/B/c/d/ c f/e/|"Dm"dc"F"-cf/e/|"Dm"d c"F"-cc|"Bb"df"C"ed/c/|"F"f4||

